!!!ONB: MCCC : IWM0409_02 : Extracted Monophonic Melody
!!!COM: Mozart, Wolfgang Amadeus
!!!OPR: Piano Sonata No.9
!!!OMV: 2
!!!SCT: K.311 ; K⁶.284c ; Op.4 No.2
!!!ODT: 1777///
**kern
*thru
*staff1
*clefG2
*k[f#]
*G:
*M2/4
*MM84
=1
8b
16.cc
32b
8a
8b
=2
8cc
8dd
16cc
16b
16a
16g
=3
8cc
8b
8ee
16r
16dd
=4
16cc
16a
16b
16g
8b
8a
=5
8b
16.cc
32b
8a
8b
=6
8cc
16ee
16dd
16cc
16b
16a
16g
=7
8cc
8b
16ee
16ff#
16gg
16cc
=8
8b
8a
4g
=9
4a
16g
16f#
16f#
16d
=10
4b
8g
8g
=11
8a
8a
16g
16f#
16f#
16d
=12
4g
8d#
8d#
=13
16e
16f#
16g
16e
16d
16c#
16c#
16A
=14
4a
8dd
8dd
=15
4dd
8aa
8aa
=16
4aa
8r
16.ff#
32gg
=17
8aa
[8aa
16aa]
16aa
16.aa
32bb
=18
16aa
16gg
8.gg
16gg
16ff#
16ee
=19
16ee
16aa
[8aa
16aa]
32bb
32aa
32aa
32gg
32ff#
32gg
=20
16gg
16ff#
8.ff#
16aa
16gg
16ff#
=21
16ff#
16ee
16ee
16ee
8ee
8ee
=22
[4aa
16aa]
32bb
32aa
16gg
16ff#
=23
16ff#
16ee
16dd#
16ee
16ff#
16gg
16b
16ee
=24
16dd
16cc#
16b
16a
16b
16cc#
16dd
16ee
=25
8ff#
16.gg
32ff#
8ee
8ff#
=26
8gg
8aa
8gg
8ff#
=27
2aa
=28
2aa
=29
8ddd
8ccc#
8bb
16r
16ff#
=30
8bb
8aa
8gg
16r
16dd
=31
8gg
8ff#
16ee
16bb
32aa
32gg
32ff#
32ee
=32
8dd
8ee
8ee#
8ff#
=33
8ddd
8ccc#
8bb
16r
16ff#
=34
8bb
8aa
8gg
16r
16dd
=35
8gg
8ff#
16ee
16bb
32aa
32gg
32ff#
32ee
=36
16dd
16ff#
8aa[
16aa]
16gg#
16gg
16ff#
=37
24bb
24gg
24ee
4.ee
=38
16dd
16cc#
16dd
16ee
16dd
16cc
16b
16a#
=39
8b
16.cc
32b
8a
8b
=40
8cc
16ee
16dd
8cc
8b
=41
8cc
8b
8ee
16r
16dd
=42
16cc
16a
16b
16g
8b
8a
=43
8b
16.cc
32b
8a
8b
=44
16cc
16cc#
16ee
16dd
16.cc
64dd
64cc
8b
=45
8cc
8b
16ee
16ff#
16gg
16cc
=46
8b
8a
4g
=47
16b
8.a
16g
16f#
16f#
16d
=48
4dd
8.g
16g
=49
16b
16a
8a
16g
16f#
16f#
16d
=50
4g
8gg
8gg
=51
4gg
8ddd
8ddd
=52
4ddd
8r
16.b
32cc
=53
8dd
[8dd
16dd]
16dd
16.dd
32ee
=54
16dd
16cc
8.cc
16cc
16b
16a
=55
16a
16dd
[8dd
16dd]
32ee
32dd
32dd
32cc
32b
32cc
=56
16cc
16b
8.b
16dd
16cc
16b
=57
16b
16a
16a
16a
8a
8a
=58
[4dd
16dd]
32ee
32dd
16cc
16b
=59
16b
16a
16g#
16a
16b
16cc
16e
16a
=60
16g
16f#
16e
16d
16e
16f#
16g
16a
=61
8b
16.cc
32b
8a
8b
=62
8cc
8dd
8cc
8b
=63
[2ddd
=64
2ddd]
=65
8gg
8ff#
8ee
16r
16b
=66
8ee
8dd
8cc
16r
16g
=67
8cc
8b
16a
16ee
32dd
32cc
32b
32a
=68
8g
8a
8a#
8b
=69
8gg
8ff#
8ee
16r
16bb
=70
8eee
8ddd
8ccc
16r
16gg
=71
8ccc
8bb
16aa
16eee
32ddd
32ccc
32bb
32aa
=72
16gg
16aa
16bb-
16bb
16ccc
16ccc#
16ddd
16ddd#
=73
32ddd#
32eee
32ddd#
32eee
32ddd
32ccc
32bb
32aa
4aa
=74
32gg
32gg
32ff#
32gg
32aa
32gg
32ff#
32ee
32dd
32ee
32dd#
32ee
32ff#
32ee
32dd
32cc
=75
16b
64cc
64b
64cc
64b
16.cc
32b[
16b]
8a
16b[
=76
16b]
8cc
32ee
32dd
8cc
8b
=77
8cc
8b
8ee
16r
16dd
=78
32dd
32cc
32b
32a
32cc
32b
32a
32g
8b
8a
=79
16a#
16b
16cc
16b
16g#
16a
16r
32cc
32b
=80
16r
32dd
32cc
16r
32ee
32dd
16.cc
64dd
64cc
8b
=81
8cc
8b
16.ee
32ff#
16gg
16cc
=82
8b
8a
4g
=83
4a
16g
16f#
16f#
16d
=84
4dd
8.g
16g
=85
16b
16a
8a
16g
16f#
16f#
16d
=86
4g
4gg
=87
4aa
16gg
16ff#
16ff#
16dd
=88
4ddd
8gg
8gg
=89
16bb
16aa
16aa
16aa
16gg
16ff#
16ff#
16dd
=90
4gg
16bb
16aa
16aa
16ff#
=91
16gg
16bb
8ddd
16bb
16aa
16aa
16ff#
=92
16gg
16bb
16ddd
16ddd
16gg
16bb
16ddd
16ddd
=93
4ddd
8gg
8r
==
*-
